!!!COM: Bach, Johann Sebastian
!!!OTL: 165. O Lamm Gottes, unschuldig
!!!ONM: No. 165
!!!OCL: Erk
!!!SCA: BWV 401
!!!YOE: Riemenschneider, Albert
!!!OPR: 371 Harmonized Chorales and 69 Chorale Melodies with Figured Bass
!!!OPT: Bach Chorale Harmonizations
**harm	**root	**kern	**kern	**kern	**kern
!	!	!bass	!tenor	!alto	!sprno
*Iorgan	*Iorgan	*Iorgan	*Iorgan	*Iorgan	*Iorgan
*>[A,A,B]	*>[A,A,B]	*>[A,A,B]	*>[A,A,B]	*>[A,A,B]	*>[A,A,B]
*>norep[A,B]	*>norep[A,B]	*>norep[A,B]	*>norep[A,B]	*>norep[A,B]	*>norep[A,B]
*>A	*>A	*>A	*>A	*>A	*>A
*k[f#c#g#d#a#]	*k[f#c#g#d#a#]	*k[f#c#g#d#a#]	*k[f#c#g#d#a#]	*k[f#c#g#d#a#]	*k[f#c#g#d#a#]
*B:	*B:	*B:	*B:	*B:	*B:
*met(c)	*met(c)	*met(c)	*met(c)	*met(c)	*met(c)
*M4/4	*M4/4	*M4/4	*M4/4	*M4/4	*M4/4
*MM60	*MM60	*MM60	*MM60	*MM60	*MM60
I	4FF	8BB	8d#	4f#	4b
.	.	8C#	8e	.	.
=1	=1	=1	=1	=1	=1
I7b	4FF	4D#	[4f#	16f#	4b
.	.	.	.	16g#	.
.	.	.	.	8a	.
IV	4BB-	[4E	8f#]	8a	4b
.	.	.	16e	8g#	.
.	.	.	16d#	.	.
V7c	4CC	4E]	4c#	8a#	4ff#
.	.	.	.	8f#	.
Ib	4FF	8D#	[4f#	8b	4ff#
.	.	8C#	.	8a#	.
=2	=2	=2	=2	=2	=2
vi7b	4DD	4BB	4f#]	4dd#	2gg#
V/V	4GG	4C#	4e#	8cc#	.
.	.	.	.	8b	.
V;	4CC;	4F#;	4c#;	4a#;	4ff#;
iii	4AA	4D#	4d#	[4a#	4ff#
=3	=3	=3	=3	=3	=3
vi	4DD	4G#	4d#	8a#]	4b
.	.	.	.	[8g#	.
Vb	4CC	4A#	4c#	8g#]	4cc#
.	.	.	.	8f#	.
I	4FF	8B	4.B	8f#	4dd#
.	.	8A#	.	16g#	.
.	.	.	.	16a#	.
IVb	4BB-	8G#	.	[4b	4ee
.	.	8E	8g#	.	.
=4	=4	=4	=4	=4	=4
Ic	4FF	4F#	4f#	8b]	4dd#
.	.	.	.	16a#	.
.	.	.	.	16g#	.
V	4CC	4FF#	8.f#	4a#	8cc#
.	.	.	.	.	8b
.	.	.	16e	.	.
I;	4FF;	4BB;	4d#;	4f#;	4b;
=:|!	=:|!	=:|!	=:|!	=:|!	=:|!
*>B	*>B	*>B	*>B	*>B	*>B
I	4FF	[4B	4f#	4b	4dd#
=5	=5	=5	=5	=5	=5
I	4FF	8B]	4f#	4b	4dd#
.	.	8A#	.	.	.
vi	4DD	8G#	4g#	4b	4dd#
.	.	8F#	.	.	.
V7b/V	4GG	4E#	4g#	4b	4cc#
Vb/vi	4AA	4F##	4d#	4a#	4dd#
=6	=6	=6	=6	=6	=6
!!linebreak: 2
vi	8DD	8G#	8d#	8g#	8b
Vb	8CC	8A#	8c#	[8f#	8a#
vi7b	8DD	8B	8d#	8f#]	4g#
V/V	8GG	8c#	16c#	8e#	.
.	.	.	16B	.	.
V;	4CC;	4F#;	4A#;	4c#;	4f#;
V7b/IV	4FF	4D#	4B	4a	4ff#
=7	=7	=7	=7	=7	=7
IV	8BB-	4E	8B	8g#	4gg#
(vii7c)	8EE	.	8c#	8a#	.
I	4FF	[4B	8d#	8b	4ff#
.	.	.	8e	16cc#	.
.	.	.	.	16dd#	.
Vb	4CC	8B]	[4f#	4cc#	4ff#
.	.	8A#	.	.	.
I	8FF	4B	8f#]	4b	8dd#
IVc	8BB-	.	8g#	.	8ee
=8	=8	=8	=8	=8	=8
V7/IV	8FF	8B	4a	4.dd#	4ff#
viioD7/ii	8FF#	8B#	.	.	.
v/VI	4AA	8c#	4g#	.	4ee
.	.	8C#	.	[8cc#	.
VI;	4DD;	4G#;	4g#;	8cc#]	4dd#;
.	.	.	.	8b#;	.
iib	8GG	8E	8g#	4cc#	4gg#
V7b/V	8GG	8E#	8b	.	.
=9	=9	=9	=9	=9	=9
V	4CC	4F#	[4a#	4cc#	8ff#
.	.	.	.	.	8ee
vi	4DD	4G#	8a#]	4b	4dd#
.	.	.	[8g#	.	.
Vb	4CC	4A#	8g#]	[4cc#	4cc#
.	.	.	8f#	.	.
I	4FF	4B	4f#	8cc#]	4dd#
.	.	.	.	16b	.
.	.	.	.	16a#	.
=10	=10	=10	=10	=10	=10
Ib	4FF	8D#	8f#	4b	4ff#
.	.	16E	8d#	.	.
.	.	16F#	.	.	.
vi	4DD	8G#	8B	[4b	4dd#
.	.	8F#	8d#	.	.
ii7b	4GG	4E	4g#	4b]	2cc#
V	4CC	4F#	8f#	4a#	.
.	.	.	8e	.	.
=11	=11	=11	=11	=11	=11
I;	2.FF;	2.BB;	2.d#;	2.f#;	2.b;
==	==	==	==	==	==
*-	*-	*-	*-	*-	*-
!!!CDT: 1685/3//-1750/7/28
!!!OCY: Deutschland
!!!AGN: chorale
!!!AST: Baroque
!!!AIN: vox
!!!YOY: 1941
!!!PPP: New York; London
!!!PPR: G. Schirmer
!!!ENC: David Huron
!!!EED: David Huron
!!!YEN: United States of America
!!!YER: 1992
!!!YEC: Copyright 1992 David Huron
!!!YEM: Rights to all derivative electronic formats reserved.
!!!YER: March 20, 1996
!!!AMT: simple quadruple
!!!EEV: 1.1
!!chor2scor: -l 2 -s 0.6 -o %b.pmx
